svgs/sharp-light/list-tree.svg

<svg xmlns="http://www.w3.org/2000/svg" viewBox="0 0 512 512"><!--! Font Awesome Pro 6.6.0 by @fontawesome - https://fontawesome.com License - https://fontawesome.com/license (Commercial License) Copyright 2024 Fonticons, Inc. --><path d="M32 80l0 32 32 0 0-32L32 80zM0 48l32 0 32 0 32 0 0 32 0 32 0 32-32 0 0 96 64 0 0-32 32 0 32 0 32 0 0 32 0 32 0 32-32 0-32 0-32 0 0-32-64 0 0 128 64 0 0-32 32 0 32 0 32 0 0 32 0 32 0 32-32 0-32 0-32 0 0-32-80 0-16 0 0-16 0-160 0-112L0 144l0-32L0 80 0 48zM160 80l16 0 320 0 16 0 0 32-16 0-320 0-16 0 0-32zM288 240l16 0 192 0 16 0 0 32-16 0-192 0-16 0 0-32zm0 160l16 0 192 0 16 0 0 32-16 0-192 0-16 0 0-32zM192 240l-32 0 0 32 32 0 0-32zM160 400l0 32 32 0 0-32-32 0z"/></svg>

<svg xmlns="http://www.w3.org/2000/svg" viewBox="0 0 512 512"><!--! Font Awesome Pro 6.4.2 by @fontawesome - https://fontawesome.com License - https://fontawesome.com/license (Commercial License) Copyright 2023 Fonticons, Inc. --><path d="M32 80v32H64V80H32zM0 48H32 64 96V80v32 32H64v96h64V208h32 32 32v32 32 32H192 160 128V272H64V400h64V368h32 32 32v32 32 32H192 160 128V432H48 32V416 256 144H0V112 80 48zM160 80h16H496h16v32H496 176 160V80zM288 240h16H496h16v32H496 304 288V240zm0 160h16H496h16v32H496 304 288V400zM192 240H160v32h32V240zM160 400v32h32V400H160z"/></svg>
